packages/blockchain-info-components/src/Images/img/banks/bank-logo-capital-one.svg

<svg fill="none" height="32" viewBox="0 0 32 32" width="32" xmlns="http://www.w3.org/2000/svg"><path d="m18.8016 19.9401c-.0026.0026-.0052.0026-.0052.0052-1.9593 1.3866-4.2789 2.8431-6.7747 4.3722l-.0985.057c-.0337.0233-.0415.07-.0181.1037.0233.0337.0699.0415.1036.0181l.083-.044c2.1174-1.1041 4.5484-2.4155 6.995-3.7606.0129-.0078.0259-.0155.0388-.0207-.1347-.2229-.2462-.4665-.3239-.7309zm12.8548-10.40566c-3.0867-3.4055-22.95209-.3421-31.398447 1.50316l-.196969.0415c-.0414673.0078-.06738415.0466-.05960905.0855.0077751.0415.04665015.0674.08552565.0596l.1943774-.0388c6.997592-1.24665 21.552622-2.97273 24.683322.1321.9564.9486.7283 2.1667-.3809 3.6077.5961.3836 1.0211.9874 1.2129 1.7416 4.3281-2.8716 7.2334-5.6162 5.8598-7.13236z" fill="#d03027"/><path clip-rule="evenodd" d="m3.7981 17.4709c-.42555.0847-.66357.1172-1.08371.1172-.6239 0-1.11978-.3101-1.09273-.8782.01983-.3786.46702-1.1756 1.60484-1.1756.35883 0 .63832.0631 1.01519.2777l.16589-.9269c-.5121-.1929-.8511-.2218-1.29108-.2182-1.49304.0163-2.924767.6943-3.103282 2.0737-.180319 1.4011 1.530902 1.7527 2.290042 1.7491.43818-.0018.89438-.0198 1.31994-.0631zm20.0311 1.6626c-.687 0-1.2154-.6835-1.2424-1.5165-.0397-1.1018.7014-2.7319 1.8464-2.73.6871 0 1.228.6816 1.2569 1.5164.0396 1.0928-.5284 2.7301-1.8609 2.7301zm.7393-4.4395c-1.6193 0-2.7337 1.4552-2.685 2.8779.0379 1.1072.7466 1.8266 1.8321 1.8266 1.6323 0 2.6597-1.2804 2.6845-2.7167.0905-.012.2197-.0259.2781-.0259.0956 0 .1857.018.1911.1136.0015.0451-.0641.3186-.1008.4714-.0087.0364-.0158.0659-.02.084l-.2037.8979c-.083.3679-.1714.752-.2507 1.0567h.5229l.294-1.4227c.8961-.9341 1.2423-1.2388 1.4533-1.2388.0956 0 .1605.0505.1659.1641.0054.1641-.0974.5373-.1316.6455l-.2994 1.0369c-.0685.2326-.119.4436-.1136.5932.0091.2272.1461.3282.3517.3282.3545 0 .6191-.3428.8484-.7047.1157.4623.483.7065.915.7065.6239 0 1.1559-.4274 1.4173-.9593l-.1027-.0703c-.2074.3227-.6149.6509-1.0224.6509-.4725 0-.6997-.3173-.7141-.6942-.0054-.1443.0054-.2398.0325-.3354.842-.0198 2.1205-.2975 2.088-1.2081-.0144-.4058-.3642-.5698-.7411-.5698-.8781 0-1.951 1.062-1.9095 2.2071.0009.0282.0027.0559.0051.083-.104.1652-.3183.4778-.4884.4778-.0558 0-.1099-.0379-.1117-.1317-.0055-.1208.045-.3029.0811-.4237l.3336-1.2154c.0901-.3354.1316-.5499.1298-.6653-.009-.2272-.1406-.3336-.3444-.3336-.3444 0-.8006.2524-1.7689 1.365h-.0144l.1226-.5428c.0138-.0618.0276-.1241.0413-.1861.0522-.2361.103-.4661.1516-.6361-.3268.1177-.7906.2491-1.0877.3091-.0443-1.0986-.7518-1.8148-1.8298-1.8148zm-18.24599 2.5659c.09376-.0198.16769-.0415.2254-.0631-.02705.1605-.05049.2633-.06853.3102-.02885.0703-.06671.128-.11901.1731-.07032.0613-.16409.11-.27408.146-.10819.0361-.21999.0541-.33539.0541-.15327 0-.26146-.0234-.32638-.0685-.06311-.0469-.08655-.1046-.07393-.1785.01082-.0703.04869-.1262.1118-.1731.06672-.0487.18392-.083.35342-.11.24524-.0397.41474-.0685.5067-.0902zm1.58449-.583h.00001c.02563-.1471.04284-.2458.04738-.3546.01082-.3607-.30293-.6402-1.28928-.6402-.61849 0-1.20453.0577-1.83023.1497l-.25786.696c.47424-.1172 1.39567-.2777 1.88614-.1803.18392.0361.2272.1154.20195.2525-.01262.0757-.05049.1172-.14425.1532-.06672.0271-.21097.0812-.44719.101-.449.0379-.78439.0757-1.02601.1154-.23983.0379-.40572.0866-.54637.1533-.13885.0667-.26868.1406-.36244.2542-.09196.1118-.15688.2723-.16409.3967-.00902.2164.07754.321.25425.4779.17491.1532.42735.1983.86733.1983.26146 0 .43637-.0234.65275-.0793.21639-.0595.45621-.1605.65456-.2795l.01262.339 1.36321.0018.00721-.0523c-.10999-.0649-.15327-.1569-.13343-.2759l.23802-1.3362zm4.0001 1.7533.4724-2.6705h1.3055l-.4724 2.6705zm.5445-3.289c.0397-.22.3859-.3967.7718-.3967.3877 0 .6708.1785.6329.3967-.0415.22-.3859.3985-.7754.3985-.3858 0-.6671-.1785-.6293-.3985zm5.6416 2.1242c.0919-.0217.1677-.0433.2272-.0632-.0289.1605-.0523.2633-.0703.3084-.0271.0685-.065.128-.1155.1731-.0721.0613-.164.1082-.2758.1461-.11.0342-.2218.0504-.3354.0504-.1533 0-.2615-.0216-.3282-.0667-.0613-.0451-.0884-.1046-.0739-.1785.0144-.0685.0504-.1262.1136-.1713.0649-.0487.1839-.0829.3516-.11l.0364-.0059h.0001c.2256-.0365.3829-.0619.4702-.0824zm1.5801-.5563v-.0001c.0296-.1615.0487-.2659.0536-.3831.009-.3588-.3048-.6401-1.2875-.6419-.6185 0-1.2027.0577-1.8302.1496l-.2561.6961c.4742-.1173 1.3921-.2777 1.8861-.1804.1822.0379.2236.1172.2002.2525-.0144.0775-.0505.119-.1461.1551-.0667.027-.2109.0793-.4454.0991-.4489.0379-.7861.0776-1.0278.1154-.238.0397-.4039.0884-.5445.1551-.1407.0667-.2705.1389-.3643.2543-.0937.11-.1587.2704-.1641.3967-.009.2163.0758.3191.2543.4778.1749.1551.4255.1984.8655.1984.2651 0 .44-.0235.6564-.0812.2145-.0577.4562-.1587.6545-.2795l.0108.3408 1.3633-.0018.0072-.0469c-.11-.0649-.1533-.1586-.1335-.2759l.2362-1.3379zm-5.1751-1.5084-.0938.5445v-.0018h-.5085l-.101.541h.4941l-.3931 2.1422c.0054-.009 1.3199 0 1.3199 0l.3949-2.1476.6492.0018.1262-.5374h-.669l.1461-.8402zm7.1894-.4599-.6347 3.6875-1.3289.0018.6689-3.7253zm-11.97136 1.7996c.13704-.1027.29216-.155.46346-.155s.3029.0541.3985.1586c.0973.1046.1298.2615.0919.4725-.0252.1334-.0721.2488-.1442.3516-.0667.0992-.1443.1605-.2561.22-.0901.0451-.2128.0667-.33177.0667-.17671 0-.31015-.0523-.40391-.1551-.09196-.1027-.11721-.2704-.07574-.5031.03427-.2001.12082-.3516.25786-.4562zm-1.27666-.7663-.63652 3.5775h1.29108l.21278-1.2262c.08475.0938.15147.1533.21458.1948.06491.0415.15146.0757.25965.1046.11.027.24345.0432.40215.0432.449-.0018.7645-.0685 1.1143-.3245.3535-.2561.568-.6023.6456-1.0441.0469-.265.0288-.5103-.0577-.7267-.083-.2199-.2399-.3894-.4616-.5067-.2236-.1154-.4076-.1316-.7069-.1316-.2705 0-.5193.0667-.7411.1569-.21999.0902-.37867.2019-.47785.339l.08836-.4562zm23.06032.9395c-.0072-.2146-.1154-.3607-.3372-.3607-.5356 0-1.1054 1.0495-1.2028 1.4714.8782.0018 1.5616-.5211 1.54-1.1107z" fill="#004977" fill-rule="evenodd"/></svg>

<svg width="32" height="32" viewBox="0 0 32 32" fill="none" xmlns="http://www.w3.org/2000/svg">
<path d="M18.8016 19.9401C18.799 19.9427 18.7964 19.9427 18.7964 19.9453C16.8371 21.3319 14.5175 22.7884 12.0217 24.3175L11.9232 24.3745C11.8895 24.3978 11.8817 24.4445 11.9051 24.4782C11.9284 24.5119 11.975 24.5197 12.0087 24.4963L12.0917 24.4523C14.2091 23.3482 16.6401 22.0368 19.0867 20.6917C19.0996 20.6839 19.1126 20.6762 19.1255 20.671C18.9908 20.4481 18.8793 20.2045 18.8016 19.9401V19.9401ZM31.6564 9.53444C28.5697 6.12894 8.70431 9.19234 0.257953 11.0376L0.060984 11.0791C0.0195167 11.0869 -0.00640015 11.1257 0.00137495 11.1646C0.00915005 11.2061 0.0480251 11.232 0.0869006 11.2242L0.281278 11.1854C7.27887 9.93875 21.8339 8.21267 24.9646 11.3175C25.921 12.2661 25.6929 13.4842 24.5837 14.9252C25.1798 15.3088 25.6048 15.9126 25.7966 16.6668C30.1247 13.7952 33.03 11.0506 31.6564 9.53444V9.53444Z" fill="#D03027"/>
<path fill-rule="evenodd" clip-rule="evenodd" d="M3.7981 17.4709C3.37255 17.5556 3.13453 17.5881 2.71439 17.5881C2.09049 17.5881 1.59461 17.278 1.62166 16.7099C1.64149 16.3313 2.08868 15.5343 3.2265 15.5343C3.58533 15.5343 3.86482 15.5974 4.24169 15.812L4.40758 14.8851C3.89548 14.6922 3.55648 14.6633 3.1165 14.6669C1.62346 14.6832 0.191733 15.3612 0.013218 16.7406C-0.167101 18.1417 1.54412 18.4933 2.30326 18.4897C2.74144 18.4879 3.19764 18.4699 3.6232 18.4266L3.7981 17.4709ZM23.8292 19.1335C23.1422 19.1335 22.6138 18.45 22.5868 17.617C22.5471 16.5152 23.2882 14.8851 24.4332 14.887C25.1203 14.887 25.6612 15.5686 25.6901 16.4034C25.7297 17.4962 25.1617 19.1335 23.8292 19.1335ZM24.5685 14.694C22.9492 14.694 21.8348 16.1492 21.8835 17.5719C21.9214 18.6791 22.6301 19.3985 23.7156 19.3985C25.3479 19.3985 26.3753 18.1181 26.4001 16.6818C26.4906 16.6698 26.6198 16.6559 26.6782 16.6559C26.7738 16.6559 26.8639 16.6739 26.8693 16.7695C26.8708 16.8146 26.8052 17.0881 26.7685 17.2409C26.7598 17.2773 26.7527 17.3068 26.7485 17.3249L26.5448 18.2228C26.4618 18.5907 26.3734 18.9748 26.2941 19.2795H26.817L27.111 17.8568C28.0071 16.9227 28.3533 16.618 28.5643 16.618C28.6599 16.618 28.7248 16.6685 28.7302 16.7821C28.7356 16.9462 28.6328 17.3194 28.5986 17.4276L28.2992 18.4645C28.2307 18.6971 28.1802 18.9081 28.1856 19.0577C28.1947 19.2849 28.3317 19.3859 28.5373 19.3859C28.8918 19.3859 29.1564 19.0431 29.3857 18.6812C29.5014 19.1435 29.8687 19.3877 30.3007 19.3877C30.9246 19.3877 31.4566 18.9603 31.718 18.4284L31.6153 18.3581C31.4079 18.6808 31.0004 19.009 30.5929 19.009C30.1204 19.009 29.8932 18.6917 29.8788 18.3148C29.8734 18.1705 29.8842 18.075 29.9113 17.9794C30.7533 17.9596 32.0318 17.6819 31.9993 16.7713C31.9849 16.3655 31.6351 16.2015 31.2582 16.2015C30.3801 16.2015 29.3072 17.2635 29.3487 18.4086C29.3496 18.4368 29.3514 18.4645 29.3538 18.4916C29.2498 18.6568 29.0355 18.9694 28.8654 18.9694C28.8096 18.9694 28.7555 18.9315 28.7537 18.8377C28.7482 18.7169 28.7987 18.5348 28.8348 18.414L29.1684 17.1986C29.2585 16.8632 29.3 16.6487 29.2982 16.5333C29.2892 16.3061 29.1576 16.1997 28.9538 16.1997C28.6094 16.1997 28.1532 16.4521 27.1849 17.5647H27.1705L27.2931 17.0219C27.3069 16.9601 27.3207 16.8978 27.3344 16.8358C27.3866 16.5997 27.4374 16.3697 27.486 16.1997C27.1592 16.3174 26.6954 16.4488 26.3983 16.5088C26.354 15.4102 25.6465 14.694 24.5685 14.694ZM6.32251 17.2599C6.41627 17.2401 6.4902 17.2184 6.54791 17.1968C6.52086 17.3573 6.49742 17.4601 6.47938 17.507C6.45053 17.5773 6.41267 17.635 6.36037 17.6801C6.29005 17.7414 6.19628 17.7901 6.08629 17.8261C5.9781 17.8622 5.8663 17.8802 5.7509 17.8802C5.59763 17.8802 5.48944 17.8568 5.42452 17.8117C5.36141 17.7648 5.33797 17.7071 5.35059 17.6332C5.36141 17.5629 5.39928 17.507 5.46239 17.4601C5.52911 17.4114 5.64631 17.3771 5.81581 17.3501C6.06105 17.3104 6.23055 17.2816 6.32251 17.2599ZM7.907 16.6769L7.90701 16.6769C7.93264 16.5298 7.94985 16.4311 7.95439 16.3223C7.96521 15.9616 7.65146 15.6821 6.66511 15.6821C6.04662 15.6821 5.46058 15.7398 4.83488 15.8318L4.57702 16.5278C5.05126 16.4106 5.97269 16.2501 6.46316 16.3475C6.64708 16.3836 6.69036 16.4629 6.66511 16.6C6.65249 16.6757 6.61462 16.7172 6.52086 16.7532C6.45414 16.7803 6.30989 16.8344 6.07367 16.8542C5.62467 16.8921 5.28928 16.9299 5.04766 16.9696C4.80783 17.0075 4.64194 17.0562 4.50129 17.1229C4.36244 17.1896 4.23261 17.2635 4.13885 17.3771C4.04689 17.4889 3.98197 17.6494 3.97476 17.7738C3.96574 17.9902 4.0523 18.0948 4.22901 18.2517C4.40392 18.4049 4.65636 18.45 5.09634 18.45C5.3578 18.45 5.53271 18.4266 5.74909 18.3707C5.96548 18.3112 6.2053 18.2102 6.40365 18.0912L6.41627 18.4302L7.77948 18.432L7.78669 18.3797C7.6767 18.3148 7.63342 18.2228 7.65326 18.1038L7.89128 16.7676L7.907 16.6769ZM11.9071 18.4302L12.3795 15.7597H13.685L13.2126 18.4302H11.9071ZM12.4516 15.1412C12.4913 14.9212 12.8375 14.7445 13.2234 14.7445C13.6111 14.7445 13.8942 14.923 13.8563 15.1412C13.8148 15.3612 13.4704 15.5397 13.0809 15.5397C12.6951 15.5397 12.4138 15.3612 12.4516 15.1412ZM18.0932 17.2654C18.1851 17.2437 18.2609 17.2221 18.3204 17.2022C18.2915 17.3627 18.2681 17.4655 18.2501 17.5106C18.223 17.5791 18.1851 17.6386 18.1346 17.6837C18.0625 17.745 17.9706 17.7919 17.8588 17.8298C17.7488 17.864 17.637 17.8802 17.5234 17.8802C17.3701 17.8802 17.2619 17.8586 17.1952 17.8135C17.1339 17.7684 17.1068 17.7089 17.1213 17.635C17.1357 17.5665 17.1717 17.5088 17.2349 17.4637C17.2998 17.415 17.4188 17.3808 17.5865 17.3537L17.6229 17.3478L17.6229 17.3478L17.623 17.3478L17.623 17.3478L17.623 17.3478C17.8486 17.3113 18.0059 17.2859 18.0932 17.2654ZM19.6733 16.7091L19.6733 16.709L19.6733 16.709C19.7029 16.5475 19.722 16.4431 19.7269 16.3259C19.7359 15.9671 19.4221 15.6858 18.4394 15.684C17.8209 15.684 17.2367 15.7417 16.6092 15.8336L16.3531 16.5297C16.8273 16.4124 17.7452 16.252 18.2392 16.3493C18.4214 16.3872 18.4628 16.4665 18.4394 16.6018C18.425 16.6793 18.3889 16.7208 18.2933 16.7569C18.2266 16.7839 18.0824 16.8362 17.8479 16.856C17.399 16.8939 17.0618 16.9336 16.8201 16.9714C16.5821 17.0111 16.4162 17.0598 16.2756 17.1265C16.1349 17.1932 16.0051 17.2654 15.9113 17.3808C15.8176 17.4908 15.7526 17.6512 15.7472 17.7775C15.7382 17.9938 15.823 18.0966 16.0015 18.2553C16.1764 18.4104 16.427 18.4537 16.867 18.4537C17.1321 18.4537 17.307 18.4302 17.5234 18.3725C17.7379 18.3148 17.9796 18.2138 18.1779 18.093L18.1887 18.4338L19.552 18.432L19.5592 18.3851C19.4492 18.3202 19.4059 18.2265 19.4257 18.1092L19.6619 16.7713L19.6733 16.7091ZM14.4982 15.2007L14.4044 15.7452V15.7434H13.8959L13.7949 16.2844H14.289L13.8959 18.4266C13.9013 18.4176 15.2158 18.4266 15.2158 18.4266L15.6107 16.279L16.2599 16.2808L16.3861 15.7434H15.7171L15.8632 14.9032L14.4982 15.2007ZM21.6876 14.7408L21.0529 18.4283L19.724 18.4301L20.3929 14.7048L21.6876 14.7408ZM9.71624 16.5404C9.85328 16.4377 10.0084 16.3854 10.1797 16.3854C10.351 16.3854 10.4826 16.4395 10.5782 16.544C10.6755 16.6486 10.708 16.8055 10.6701 17.0165C10.6449 17.1499 10.598 17.2653 10.5259 17.3681C10.4592 17.4673 10.3816 17.5286 10.2698 17.5881C10.1797 17.6332 10.057 17.6548 9.93803 17.6548C9.76132 17.6548 9.62788 17.6025 9.53412 17.4997C9.44216 17.397 9.41691 17.2293 9.45838 16.9966C9.49265 16.7965 9.5792 16.645 9.71624 16.5404ZM8.43958 15.7741L7.80306 19.3516H9.09414L9.30692 18.1254C9.39167 18.2192 9.45839 18.2787 9.5215 18.3202C9.58641 18.3617 9.67296 18.3959 9.78115 18.4248C9.89115 18.4518 10.0246 18.468 10.1833 18.468C10.6323 18.4662 10.9478 18.3995 11.2976 18.1435C11.6511 17.8874 11.8656 17.5412 11.9432 17.0994C11.9901 16.8344 11.972 16.5891 11.8855 16.3727C11.8025 16.1528 11.6456 15.9833 11.4239 15.866C11.2003 15.7506 11.0163 15.7344 10.717 15.7344C10.4465 15.7344 10.1977 15.8011 9.9759 15.8913C9.75591 15.9815 9.59723 16.0932 9.49805 16.2303L9.58641 15.7741H8.43958ZM31.4999 16.7136C31.4927 16.499 31.3845 16.3529 31.1627 16.3529C30.6271 16.3529 30.0573 17.4024 29.9599 17.8243C30.8381 17.8261 31.5215 17.3032 31.4999 16.7136Z" fill="#004977"/>
</svg>
